icons/line/terminal.svg

<svg width="24" height="24" viewBox="0 0 24 24" fill="none" xmlns="http://www.w3.org/2000/svg">
<path d="M13 16H17M7 8L11 12L7 16V8ZM5 20H19C20.1046 20 21 19.1046 21 18V6C21 4.89543 20.1046 4 19 4H5C3.89543 4 3 4.89543 3 6V18C3 19.1046 3.89543 20 5 20Z" stroke="currentColor" stroke-width="2" stroke-linecap="round" stroke-linejoin="round"/>
</svg>

<svg width="24" height="24" fill="none" xmlns="http://www.w3.org/2000/svg"><path d="M13 16h4M7 8l4 4-4 4V8zM5 20h14a2 2 0 002-2V6a2 2 0 00-2-2H5a2 2 0 00-2 2v12a2 2 0 002 2z" stroke="currentColor" stroke-width="2" stroke-linecap="round" stroke-linejoin="round"/></svg>
